status/24/network-wired-offline-symbolic.svg

<?xml version="1.0" encoding="UTF-8" standalone="no"?>
<svg
   xmlns:dc="http://purl.org/dc/elements/1.1/"
   xmlns:cc="http://creativecommons.org/ns#"
   xmlns:rdf="http://www.w3.org/1999/02/22-rdf-syntax-ns#"
   xmlns:svg="http://www.w3.org/2000/svg"
   xmlns="http://www.w3.org/2000/svg"
   id="svg7384"
   height="24"
   width="24"
   version="1.1">
  <title
     id="title9167">elementary Symbolic Icon Theme</title>
  <metadata
     id="metadata90">
    <rdf:RDF>
      <cc:Work
         rdf:about="">
        <dc:format>image/svg+xml</dc:format>
        <dc:type
           rdf:resource="http://purl.org/dc/dcmitype/StillImage" />
        <dc:title>elementary Symbolic Icon Theme</dc:title>
      </cc:Work>
    </rdf:RDF>
  </metadata>
  <defs
     id="defs7386" />
  <g
     style="display:inline"
     id="layer10"
     transform="translate(-473.0004,610)" />
  <g
     id="layer11"
     transform="translate(-473.0004,610)" />
  <g
     style="display:inline"
     id="layer13"
     transform="translate(-473.0004,610)" />
  <g
     id="layer14"
     transform="translate(-473.0004,610)" />
  <g
     style="display:inline"
     id="layer15"
     transform="translate(-473.0004,610)" />
  <g
     style="display:inline"
     id="g71291"
     transform="translate(-473.0004,610)" />
  <g
     style="display:inline"
     id="g4953"
     transform="translate(-473.0004,610)" />
  <g
     style="display:inline"
     id="layer12"
     transform="translate(-473.0004,610)" />
  <path
     id="rect2986-4"
     d="M 9 6 L 9 11 L 11 11 L 11 12 L 4 12 L 4 13 L 7 13 L 7 14 L 5 14 L 5 19 L 11 19 L 11 14 L 9 14 L 9 13 L 15 13 L 15 14 L 13 14 L 13 19 L 16.146484 19 A 1.0044145 1.0044145 0 0 1 15.996094 18.46875 L 15.996094 18 L 14 18 L 14 15 L 18 15 L 18 15.996094 L 18.375 15.996094 A 1.0044145 1.0044145 0 0 1 19 16.214844 L 19 14 L 17 14 L 17 13 L 20 13 L 20 12 L 13 12 L 13 11 L 15 11 L 15 6 L 9 6 z M 10 7 L 14 7 L 14 10 L 10 10 L 10 7 z M 6 15 L 10 15 L 10 18 L 6 18 L 6 15 z "
     style="color:#000000;clip-rule:nonzero;display:inline;overflow:visible;visibility:visible;opacity:0.4;isolation:auto;mix-blend-mode:normal;color-interpolation:sRGB;color-interpolation-filters:linearRGB;solid-color:#000000;solid-opacity:1;fill:#bebebe;fill-opacity:1;fill-rule:nonzero;stroke:none;stroke-width:1;stroke-linecap:butt;stroke-linejoin:miter;stroke-miterlimit:4;stroke-dasharray:none;stroke-dashoffset:0;stroke-opacity:1;marker:none;color-rendering:auto;image-rendering:auto;shape-rendering:auto;text-rendering:auto;enable-background:accumulate" />
  <path
     style="color:#bebebe;display:inline;overflow:visible;visibility:visible;fill:#bebebe;fill-opacity:1;stroke:none;stroke-width:2;marker:none"
     id="path13596"
     d="m 17,17.0001 1.375,0 1.125,1.0938 1.09375,-1.0938 1.40625,0 0,1.4688 -1.09375,1.0625 1.09375,1.0625 0,1.4062 -1.4375,0 -1.0625,-1.0625 -1.0625,1.0625 -1.4375,0 0,-1.4062 1.0625,-1.0625 L 17,18.4689 17,17.0001 Z" />
</svg>

<svg xmlns="http://www.w3.org/2000/svg" height="24" width="24"><title>elementary Symbolic Icon Theme</title><path d="M9 6v5h2v1H4v1h3v1H5v5h6v-5H9v-1h6v1h-2v5h3.146a1.004 1.004 0 0 1-.15-.53V18H14v-3h4v.996h.375a1.004 1.004 0 0 1 .625.22V14h-2v-1h3v-1h-7v-1h2V6H9zm1 1h4v3h-4V7zm-4 8h4v3H6v-3z" style="isolation:auto;mix-blend-mode:normal" color="#000" overflow="visible" opacity=".4" fill="#bebebe"/><path d="M17 17h1.375l1.125 1.094L20.594 17H22v1.47l-1.094 1.06L22 20.595V22h-1.438L19.5 20.938 18.437 22H17v-1.406l1.063-1.063L17 18.47V17z" color="#bebebe" overflow="visible" fill="#bebebe"/></svg>
